X:1
T:Scarce o'Tatties
M:6/8
L:1/8
K:Em
C:Norman MacLean
"Am"A>ee e>fg|"G"e>dB d>BG|"Am"A>ee e>fg|"G"e>dB "Am"A3|!
a>aa "C"g>ag|"D"f>gf e>AA|"Am"A>ee e>fg|"G"e>dB "Am"A3:|]!
a>eg a3|"G"g2f "Am"e&g e7b t;AA|a>eg a2e|"Em"g>af "Am"e3|!
"Am"e>ee "C"A>AA|"D"d>ff f>ee|"Am"A>ee e>fg|"G"e>dB "Am"A3:|]!
